svgs/sharp-light/pipe-valve.svg

<svg xmlns="http://www.w3.org/2000/svg" viewBox="0 0 512 512"><!--! Font Awesome Pro 6.6.0 by @fontawesome - https://fontawesome.com License - https://fontawesome.com/license (Commercial License) Copyright 2024 Fonticons, Inc. --><path d="M272 32l0-16-32 0 0 16 0 48-96 0-16 0 0 32 16 0 96 0 0 80L32 192l0-16 0-16L0 160l0 16 0 32L0 432l0 32 0 16 32 0 0-16 0-16 448 0 0 16 0 16 32 0 0-16 0-32 0-224 0-32 0-16-32 0 0 16 0 16-208 0 0-80 96 0 16 0 0-32-16 0-96 0 0-48zM240 224l16 0 16 0 208 0 0 192L32 416l0-192 208 0z"/></svg>

<svg xmlns="http://www.w3.org/2000/svg" viewBox="0 0 512 512"><!--! Font Awesome Pro 6.4.2 by @fontawesome - https://fontawesome.com License - https://fontawesome.com/license (Commercial License) Copyright 2023 Fonticons, Inc. --><path d="M272 32V16H240V32 80H144 128v32h16 96v80H32V176 160H0v16 32V432v32 16H32V464 448H480v16 16h32V464 432 208 176 160H480v16 16H272V112h96 16V80H368 272V32zM240 224h16 16H480V416H32V224H240z"/></svg>
